X: 117
T: Missa Puer natus est nobis / Kyrie
N: Derived from Rue1025a-Missa_Puer_natus_est_nobis-Kyrie.krn
C: Pierre de la Rue
%%abc-version 2.0
%%abcx-abcm2ps-target-version 5.9.1 (29 Sep 2008)
%%abc-creator hum2abc beta
%%abcx-conversion-date 2019/02/17 08:01:14
%%abc-edited-by Jesse Rodin
%%abc-edited-by Chris Gage 05-11-2013
%%abcx-initial-encoding-date 2013/08/01/
%%humdrum-veritas 28058725
%%humdrum-veritas-data 1576235477
%%linebreak <none>
%%barnumbers 0
L: 1/4
M: 3/1
Q: 1/2=120
%%staves [1 2 3 4]
V: 1 clef=treble
V: 2 clef=treble-8
V: 3 clef=treble-8
V: 4 clef=bass
K: F
[V:1] G8d4 | 
[V:2] G8G4 | 
[V:3] z12 | 
[V:4] G,8B,4 | 
[V:1] d6cBA2B2 | 
[V:2] d8d4 | 
[V:3] z12 | 
[V:4] B,2B,4A,G,F,2G,2 | 
[V:1] c4B2c3BAG | 
[V:2] _e8_e4 | 
[V:3] z12 | 
[V:4] C,4z2C,3D,_E,F, | 
[V:1] B2c3BAGA4 | 
[V:2] d2_e3dg4^f2 | 
[V:3] z12 | 
[V:4] G,2C,2_E,4D,4 | 
[V:1] G4z2B4AG | 
[V:2] g12 | 
[V:3] G8d4 | 
[V:4] z4z2G,4F,E, | 
[V:1] F3GA2D2A2B2 | 
[V:2] z4z4f4 | 
[V:3] d8z4 | 
[V:4] D,3E,F,2G,2D,3E, | 
[V:1] A2d4c4B2 | 
[V:2] f2B2f3ga2g2- | 
[V:3] d12 | 
[V:4] F,2G,2D,3E,F,2G,2 | 
[V:1] c4z2G2A2B2 | 
[V:2] gf_edc3BA2GF | 
[V:3] _e8d4 | 
[V:4] C,4z2_E,2F,2G,2 | 
[V:1] c2A3GFEF4 | 
[V:2] G2A4G4F2 | 
[V:3] c2d3cc4=B2 | 
[V:4] C,2F,3E,D,C,D,4 | 
[V:1] E2c2A2c3BAG | 
[V:2] G2A3GEFG4 | 
[V:3] c8z4 | 
[V:4] C,4z4_E,4 | 
[V:1] F2B3cd3cA2- | 
[V:2] A2G2B3cd3c | 
[V:3] d12 | 
[V:4] D,2G,3F,D,3E,F,2- | 
[V:1] ABc3BG3AB2- | 
[V:2] A3Bc3BG3A | 
[V:3] c8_e4 | 
[V:4] F,E,C,3D,_E,4D,C, | 
[V:1] BAFGA2G4^F2 | 
[V:2] B3AF2B2A4 | 
[V:3] d12 | 
[V:4] B,,C,D,E,F,2G,2D,4 | 
[V:1] G12 ||  
[V:2] G12 ||  
[V:3] d12 ||  
[V:4] G,12 ||  
[V:1]  [K:F] [K:clef=treble][M:2/1]z8 | 
[V:2]  [K:F] [K:clef=treble-8][M:2/1]d4d2B2- | 
[V:3]  [K:F] [K:clef=treble-8][M:2/1]G8 | 
[V:4]  [K:F] [K:clef=bass][M:2/1]z4G,4- | 
[V:1] z8 | 
[V:2] B2AGF3G | 
[V:3] G4d4- | 
[V:4] G,2F,E,D,3E, | 
[V:1] z8 | 
[V:2] A2B3AGF | 
[V:3] d4d4 | 
[V:4] F,2G,3F,E,D, | 
[V:1] z4c4- | 
[V:2] c2BAG2A2 | 
[V:3] _e8- | 
[V:4] C,8- | 
[V:1] c2BAG3A | 
[V:2] G2c4BA | 
[V:3] e8- | 
[V:4] C,8 | 
[V:1] B2c3BAG | 
[V:2] G2g3fg2 | 
[V:3] e8 | 
[V:4] z8 | 
[V:1] F3GA2F2 | 
[V:2] a4f4- | 
[V:3] d8 | 
[V:4] z8 | 
[V:1] A2B2c3B | 
[V:2] f4g4 | 
[V:3] d4c4- | 
[V:4] z4C,3D, | 
[V:1] G4z4 | 
[V:2] e2g4fe | 
[V:3] c4c4 | 
[V:4] E,2C,2E,2F,2 | 
[V:1] z4D3E | 
[V:2] d4z4 | 
[V:3] B8- | 
[V:4] G,8 | 
[V:1] F2D2F2G2 | 
[V:2] z8 | 
[V:3] B8 | 
[V:4] z8 | 
[V:1] A8 | 
[V:2] z4f4- | 
[V:3] A8 | 
[V:4] D,3E,F,2D,2 | 
[V:1] z4c4- | 
[V:2] f2edc3d | 
[V:3] z8 | 
[V:4] F,2G,2A,4- | 
[V:1] c2BAG2A2- | 
[V:2] e2e3dcB | 
[V:3] c8 | 
[V:4] A,2G,F,E,2F,2- | 
[V:1] AGFEF4 | 
[V:2] A2B4B2 | 
[V:3] c4d4 | 
[V:4] F,E,D,C,B,,4 | 
[V:1] E2A2A4 | 
[V:2] G2c3BA2- | 
[V:3] c8 | 
[V:4] C,4z2F,2 | 
[V:1] B4A3G | 
[V:2] A2G2A2f2- | 
[V:3] z4z2c2 | 
[V:4] G,4F,3E, | 
[V:1] AGc4=B2 | 
[V:2] f2efg4 | 
[V:3] c4d4 | 
[V:4] F,2A,2G,4 | 
[V:1] c4z2c2 | 
[V:2] g4d2g2- | 
[V:3] e4f2e2- | 
[V:4] z2C,2D,2C,2 | 
[V:1] c4d4 | 
[V:2] g2fef4 | 
[V:3] edc4=B2 | 
[V:4] E,2F,2D,4 | 
[V:1] e8 | 
[V:2] ede3dc2- | 
[V:3] c8 | 
[V:4] z2C,2C,4 | 
[V:1] f4ede2- | 
[V:2] c2=B2c2c2- | 
[V:3] z8 | 
[V:4] D,4C,4- | 
[V:1] edc4=B2 | 
[V:2] c2c2d4 | 
[V:3] z8 | 
[V:4] C,4G,4 | 
[V:1] c8 | 
[V:2] cdefg2a2- | 
[V:3] z8 | 
[V:4] C,4z2F,2 | 
[V:1] z8 | 
[V:2] agf4e2 | 
[V:3] z8 | 
[V:4] F,4G,4 | 
[V:1] z8 | 
[V:2] f8 | 
[V:3] c8- | 
[V:4] F,8 | 
[V:1] z4A4 | 
[V:2] z4f4 | 
[V:3] c8 | 
[V:4] z4F,4 | 
[V:1] A8 | 
[V:2] f8 | 
[V:3] c8 | 
[V:4] F,8 | 
[V:1] B8 | 
[V:2] f8 | 
[V:3] d8- | 
[V:4] B,,8 & B,8 | 
[V:1] A8- | 
[V:2] f8- | 
[V:3] d4c4 | 
[V:4] F,8- | 
[V:1] A8 ||  
[V:2] f8 ||  
[V:3] c8 ||  
[V:4] F,8 ||  
[V:1]  [K:F] [K:clef=treble][M:3/1]A8B4 | 
[V:2]  [K:F] [K:clef=treble-8][M:3/1]f8f4 | 
[V:3]  [K:F] [K:clef=treble-8][M:3/1]c4c2d4d2 | 
[V:4]  [K:F] [K:clef=bass][M:3/1]F,8D,4 | 
[V:1] c3BA2G2c4 | 
[V:2] g3fedg4f2 | 
[V:3] e2c4B2A4 | 
[V:4] C,4F,2G,2A,4 | 
[V:1] B2d4cBA2B2 | 
[V:2] g3fd2e2f2d2 | 
[V:3] G8z4 | 
[V:4] z2B,4A,G,F,2G,2 | 
[V:1] G2A4GFE2F2 | 
[V:2] e2c2d2B2c2A2 | 
[V:3] z12 | 
[V:4] E,2F,2D,4C,2D,2- | 
[V:1] D3CC2D3EFG | 
[V:2] B2ABG2A2d4 | 
[V:3] z12 | 
[V:4] D,E,F,G,E,2D,2z4 | 
[V:1] E3/D/D4^C2D4 | 
[V:2] c2defge2d4 | 
[V:3] z12 | 
[V:4] z4z4D,4- | 
[V:1] z2A2B2c2A2d2- | 
[V:2] A4z4z4 | 
[V:3] z2d4c2defg | 
[V:4] D,2F,2G,2A,2D,4 | 
[V:1] d2^c2d4z2d2- | 
[V:2] z2a4d2d4- | 
[V:3] e4z2d4G2 | 
[V:4] A,4D,8 | 
[V:1] d2G2G4z2c2- | 
[V:2] d4z2g4c2 | 
[V:3] G3AB2c3BAG | 
[V:4] z2G,4C,2C,4 | 
[V:1] c2F2F4z2B2- | 
[V:2] c4z2d3ef2- | 
[V:3] F3GA2B3cd2- | 
[V:4] z2F,4B,,2B,,4- | 
[V:1] B2AGA2B2G2B2 | 
[V:2] f2ede2f2d2g2 | 
[V:3] d2cBc2d3cde | 
[V:4] B,,4z2B,3A,G,2 | 
[V:1] A2G2B2c2d4 | 
[V:2] a2b2g4f2d2 | 
[V:3] f2d4c3=B=B2 | 
[V:4] F,2G,4F,E,D,4 | 
[V:1] _e3dcBc3BAG | 
[V:2] g3fedc4c2 | 
[V:3] c4c2_e4_e2 | 
[V:4] C,8C,4 | 
[V:1] F_EBAAGG4^F2 | 
[V:2] f4fedcd4 | 
[V:3] d4cBAGA4 | 
[V:4] D,3_E,F,2G,2D,4 | 
[V:1] G12 |]  
[V:2] d12 |]  
[V:3] G12 |]  
[V:4] G,,12 |]  



